X:180
M:4/4
L:1/8
K:G
dB | G2GF GABd | dced dBAc | BGED E2EG | FGAF GFED | 
gdBd GdBd | fgaf fged | BGED E2ED | GBAB G2 :|| 

